X: 478
T: Bûselik Seyir
C: Rauf Yektâ
O: Turkey
F: http://compmusic.upf.edu/node/140
N: buselik--seyir--semai--1--rauf_yekta
N: makam= buselik
N: form= seyir
N: usul= semai = 3/4
M: 3/4
L: 1/16
K: C    
Q: 1/4=120
%%MIDI tuningsystem comma53
c8 B4  | c8 d4  | e8 d4  | c8 B4  | A8 B4  | c8 B4  | \
w:   |   |   |   |   |   | 
A8 B4  | G8 z4  | G8 G4  | c8 c4  | d8 e4  | 
w:   |   |   |   |   | 
e8 z4  | d8 e4  | f4 e4 d4  | d4 c4 B4  | c8 z4  | \
w:   |   |   |   |   | 
d8 e4  | e8 e4  | e8 f4  | d8 z4  | g4 ^f4 g4  | 
w:   |   |   |   |   | 
a4 g4 ^f4  | g8 ^f4  | e8 z4  | e8 f4  | g8 f4  | \
w:   |   |   |   |   | 
e8 d4  | c8 z4  | c4 B4 c4  | d4 c4 B4  | 
w:   |   |   |   | 
B4 A4 ^G4  | A8 z4  | |


